assets/offering/forkopsinformation-grey.svg

<svg width="48" height="48" viewBox="0 0 48 48" fill="none" xmlns="http://www.w3.org/2000/svg">
<g opacity="0.3">
<mask id="mask0" mask-type="alpha" maskUnits="userSpaceOnUse" x="0" y="0" width="49" height="48">
<path fill-rule="evenodd" clip-rule="evenodd" d="M0.00012207 0H48V48H0.00012207V0Z" fill="white"/>
</mask>
<g mask="url(#mask0)">
<path fill-rule="evenodd" clip-rule="evenodd" d="M48.0001 24C48.0001 37.255 37.2551 48 24.0001 48C10.7451 48 0.00012207 37.255 0.00012207 24C0.00012207 10.745 10.7451 0 24.0001 0C37.2551 0 48.0001 10.745 48.0001 24Z" fill="#0F007A"/>
</g>
<path fill-rule="evenodd" clip-rule="evenodd" d="M23.551 18.9761C23.551 18.6341 23.815 18.3711 24.176 18.3711C24.528 18.3711 24.801 18.6541 24.801 18.9861C24.801 19.3281 24.537 19.6011 24.176 19.6011C23.815 19.6011 23.551 19.3181 23.551 18.9761ZM22.137 24.904C22.137 24.816 22.157 24.708 22.196 24.581L23.153 21.164C23.25 20.831 23.143 20.675 22.733 20.724L22.567 20.744L22.596 20.646L24.393 20.187L23.289 24.132C23.221 24.357 23.299 24.455 23.446 24.455C23.651 24.455 24.032 24.122 24.412 23.634L24.51 23.703C23.934 24.484 23.153 25.353 22.557 25.353C22.342 25.353 22.137 25.246 22.137 24.904Z" fill="white"/>
<path fill-rule="evenodd" clip-rule="evenodd" d="M17.962 27.2014H32.258V16.2194C32.258 14.7744 32.996 13.8054 34.096 13.8054H35.149C35.665 13.8054 36.085 13.3864 36.085 12.8704C36.085 12.3544 35.665 11.9344 35.149 11.9344H35.038C34.351 11.9064 32.422 12.0244 31.68 12.7494C30.874 13.5344 30.499 14.1174 30.409 15.4934C30.363 16.1804 29.794 16.7194 29.112 16.7194H13.156C13.025 16.7194 12.948 16.7944 12.915 16.8404C12.881 16.8854 12.829 16.9794 12.866 17.1054L15.231 25.2494C15.647 26.4064 16.654 27.1454 17.822 27.1894L17.962 27.2014ZM27.5921 33.9415H15.3441V32.9415H27.5921C29.6361 32.9415 31.2171 31.7465 31.7221 30.5655C32.2451 29.3455 32.2581 28.2855 32.2581 28.2745V28.2015L17.6871 28.1845C16.1701 28.0895 14.8671 27.1255 14.3341 25.6995L14.3041 25.6435L11.9051 17.3835C11.7911 16.9865 11.8671 16.5695 12.1151 16.2385C12.3631 15.9085 12.7431 15.7195 13.1561 15.7195H29.1121C29.2691 15.7195 29.4001 15.5915 29.4111 15.4285C29.5221 13.7445 30.0261 12.9645 30.9821 12.0335C32.1601 10.8835 34.7741 10.9245 35.0671 10.9345H35.0681C36.2171 10.9345 37.0851 11.8035 37.0851 12.8705C37.0851 13.9365 36.2171 14.8055 35.1491 14.8055H34.0961C33.4351 14.8055 33.2581 15.6935 33.2581 16.2195V28.2765C33.2581 28.3285 33.2491 29.5415 32.6421 30.9595C32.0261 32.3955 30.1851 33.9415 27.5921 33.9415Z" fill="white"/>
<path fill-rule="evenodd" clip-rule="evenodd" d="M19.0149 37.2381C19.0149 36.4361 18.3649 35.7861 17.5619 35.7861C16.7599 35.7861 16.1099 36.4361 16.1099 37.2381C16.1099 38.0411 16.7599 38.6911 17.5619 38.6911C18.3649 38.6911 19.0149 38.0411 19.0149 37.2381Z" fill="white"/>
<path fill-rule="evenodd" clip-rule="evenodd" d="M29.8373 37.2381C29.8373 36.4361 29.1873 35.7861 28.3843 35.7861C27.5823 35.7861 26.9323 36.4361 26.9323 37.2381C26.9323 38.0411 27.5823 38.6911 28.3843 38.6911C29.1873 38.6911 29.8373 38.0411 29.8373 37.2381Z" fill="white"/>
</g>
</svg>

<svg width="48" height="48" viewBox="0 0 48 48" fill="none" xmlns="http://www.w3.org/2000/svg"><g opacity=".3"><mask id="a" maskUnits="userSpaceOnUse" x="0" y="0" width="49" height="48"><path fill-rule="evenodd" clip-rule="evenodd" d="M0 0h48v48H0V0z" fill="#fff"/></mask><g mask="url(#a)"><path fill-rule="evenodd" clip-rule="evenodd" d="M48 24c0 13.255-10.745 24-24 24S0 37.255 0 24 10.745 0 24 0s24 10.745 24 24z" fill="#0F007A"/></g><path fill-rule="evenodd" clip-rule="evenodd" d="M23.551 18.976c0-.342.264-.605.625-.605a.62.62 0 01.625.615.609.609 0 01-.625.615.617.617 0 01-.625-.625zm-1.414 5.928c0-.088.02-.196.059-.323l.957-3.417c.097-.333-.01-.489-.42-.44l-.166.02.029-.098 1.797-.459-1.104 3.945c-.068.225.01.323.157.323.205 0 .586-.333.966-.821l.098.069c-.576.781-1.357 1.65-1.953 1.65-.215 0-.42-.107-.42-.449z" fill="#fff"/><path fill-rule="evenodd" clip-rule="evenodd" d="M17.962 27.201h14.296V16.22c0-1.445.738-2.414 1.838-2.414h1.053a.936.936 0 000-1.87h-.111c-.687-.029-2.616.09-3.358.814-.806.785-1.181 1.368-1.271 2.744a1.31 1.31 0 01-1.297 1.226H13.156a.292.292 0 00-.241.121.293.293 0 00-.049.265l2.365 8.144c.416 1.157 1.423 1.896 2.591 1.94l.14.012zm9.63 6.74H15.344v-1h12.248c2.044 0 3.625-1.195 4.13-2.376.523-1.22.536-2.28.536-2.29v-.073l-14.57-.018a3.818 3.818 0 01-3.354-2.485l-.03-.056-2.399-8.26a1.297 1.297 0 01.21-1.145c.248-.33.628-.518 1.041-.518h15.956a.306.306 0 00.3-.292c.11-1.684.614-2.464 1.57-3.395 1.178-1.15 3.792-1.108 4.085-1.098h.001c1.15 0 2.017.868 2.017 1.935a1.938 1.938 0 01-1.936 1.936h-1.053c-.66 0-.838.888-.838 1.414v12.056c0 .052-.009 1.265-.616 2.683-.616 1.436-2.457 2.982-5.05 2.982zM19.015 37.238a1.452 1.452 0 10-2.904 0 1.452 1.452 0 002.904 0zM29.837 37.238a1.452 1.452 0 10-2.904 0 1.452 1.452 0 002.904 0z" fill="#fff"/></g></svg>
